alura/assets/api/cursos/bootcamp-frontend-modulo2.svg

<svg xmlns="http://www.w3.org/2000/svg" fill="none" viewBox="0 0 36 36"><path fill="#2A7AE4" d="M36 18c0 9.941-8.059 18-18 18S0 27.941 0 18 8.059 0 18 0s18 8.059 18 18zM2.137 18c0 8.76 7.102 15.863 15.863 15.863 8.76 0 15.863-7.102 15.863-15.863C33.863 9.24 26.76 2.137 18 2.137S2.137 9.24 2.137 18z"/><path fill="#2A7AE4" d="M17.948 20.184a2.236 2.236 0 100-4.472 2.236 2.236 0 000 4.472z"/><path fill="#2A7AE4" d="M26.112 14.1c-.26-.104-.572-.156-.832-.26.052-.208.104-.416.156-.572.572-3.068.156-5.408-1.196-6.188-1.3-.728-3.38 0-5.616 1.924a6.232 6.232 0 00-.624.572c-.156-.156-.312-.26-.416-.416-2.288-2.028-4.576-2.86-5.876-2.08-1.3.728-1.716 2.912-1.144 5.824.052.26.104.572.208.884a9.815 9.815 0 00-.936.312c-2.756.936-4.42 2.392-4.42 3.9s1.768 3.068 4.576 4.056c.208.104.468.156.728.208a6.046 6.046 0 00-.208.936c-.52 2.86-.104 4.992 1.196 5.72a2.28 2.28 0 001.196.312c1.3 0 2.912-.78 4.628-2.236.156-.156.364-.312.52-.52.26.26.468.468.676.624.208.156.52.156.728-.104.156-.208.156-.52-.052-.676a8.635 8.635 0 01-.728-.676c-.052-.052-.104-.052-.104-.104.728-.78 1.456-1.716 2.184-2.756 1.248-.104 2.444-.312 3.536-.52v.156c.052.26.104.468.156.728a.54.54 0 00.624.416.54.54 0 00.416-.624c-.052-.208-.104-.468-.156-.676.156-.052.312-.104.52-.156 2.912-.988 4.732-2.548 4.732-4.056 0-1.56-1.664-3.016-4.472-3.952zm-14.404 7.54c.26-.936.624-1.924 1.092-2.964l.936 1.716c.312.572.676 1.144 1.04 1.664-1.092 0-2.132-.208-3.068-.416zm3.068-7.748c-.364.52-.728 1.092-1.04 1.664l-.936 1.716a27.902 27.902 0 01-1.092-2.912 31.247 31.247 0 013.068-.468zm3.172 8.372c-.832 0-1.664-.052-2.392-.104a28 28 0 01-1.3-2.08c-.416-.676-.78-1.404-1.144-2.132.364-.728.728-1.456 1.144-2.132.416-.676.832-1.404 1.3-2.028a37.518 37.518 0 014.836 0c.468.676.884 1.352 1.3 2.028.416.676.78 1.404 1.144 2.132a43.994 43.994 0 01-1.144 2.184c-.416.676-.832 1.404-1.3 2.028-.728.104-1.56.104-2.444.104zm-1.924-9.1A28.341 28.341 0 0118 10.772c.728.728 1.352 1.56 1.976 2.392a25.066 25.066 0 00-3.952 0zm1.924 9.724c.676 0 1.352 0 1.976-.052-.624.884-1.3 1.716-1.924 2.392a28.341 28.341 0 01-1.976-2.392c.624.052 1.3.052 1.924.052zm4.264-2.444c.312-.572.624-1.144.936-1.768.468 1.04.832 2.028 1.144 2.912-.936.208-1.976.416-3.12.52.364-.52.728-1.092 1.04-1.664zm.936-3.172l-.936-1.716c-.312-.572-.676-1.092-1.04-1.664 1.092.104 2.08.312 3.068.52-.26.884-.624 1.872-1.092 2.86zm-4.472-6.864c.26-.26.468-.416.676-.624 2.08-1.82 3.744-2.184 4.42-1.82.728.416 1.248 2.184.676 5.044l-.156.624v.104a27.02 27.02 0 00-3.484-.572c-.676-.936-1.404-1.872-2.184-2.704l.052-.052zm-6.5-2.392c.728-.416 2.496 0 4.68 1.976.156.156.312.26.468.416l.052.052c-.78.884-1.56 1.768-2.236 2.756-1.144.104-2.288.26-3.432.52v-.104c-.052-.312-.156-.572-.208-.884-.468-2.704 0-4.316.676-4.732zm-1.82 13.052c-2.704-.936-3.9-2.236-3.9-3.068 0-.832 1.144-2.028 3.692-2.912.312-.104.624-.208.988-.312.052 0 .052 0 .104-.052.364 1.092.78 2.184 1.248 3.276-.52 1.144-.988 2.288-1.3 3.328-.052 0-.052 0-.104-.052a3.83 3.83 0 01-.728-.208zm6.5 5.096c-2.132 1.872-3.9 2.236-4.628 1.82-.728-.416-1.196-1.976-.676-4.628.052-.312.156-.624.208-.936v-.156c1.04.208 2.236.416 3.484.52a23.479 23.479 0 002.236 2.756c-.052 0-.052.052-.104.052-.156.208-.364.416-.52.572zm8.632-5.096c-.156.052-.364.104-.52.156-.052 0-.104.052-.156.052-.312-1.04-.78-2.132-1.3-3.328.52-1.144.936-2.184 1.248-3.224.052 0 .104.052.156.052.312.104.624.156.884.26 2.6.884 3.796 2.132 3.796 2.912-.052.884-1.3 2.184-4.108 3.12z"/></svg>

<svg viewBox="0 0 36 36" fill="none" xmlns="http://www.w3.org/2000/svg">
<path d="M36 18C36 27.9411 27.9411 36 18 36C8.05887 36 0 27.9411 0 18C0 8.05887 8.05887 0 18 0C27.9411 0 36 8.05887 36 18ZM2.13734 18C2.13734 26.7607 9.23929 33.8627 18 33.8627C26.7607 33.8627 33.8627 26.7607 33.8627 18C33.8627 9.23929 26.7607 2.13734 18 2.13734C9.23929 2.13734 2.13734 9.23929 2.13734 18Z" fill="#2A7AE4"/>
<path d="M17.948 20.184C19.1829 20.184 20.184 19.1829 20.184 17.948C20.184 16.7131 19.1829 15.712 17.948 15.712C16.7131 15.712 15.712 16.7131 15.712 17.948C15.712 19.1829 16.7131 20.184 17.948 20.184Z" fill="#2A7AE4"/>
<path d="M26.112 14.1C25.852 13.996 25.54 13.944 25.28 13.84C25.332 13.632 25.384 13.424 25.436 13.268C26.008 10.2 25.592 7.86 24.24 7.08C22.94 6.352 20.86 7.08 18.624 9.004C18.416 9.16 18.208 9.368 18 9.576C17.844 9.42 17.688 9.316 17.584 9.16C15.296 7.132 13.008 6.3 11.708 7.08C10.408 7.808 9.99202 9.992 10.564 12.904C10.616 13.164 10.668 13.476 10.772 13.788C10.408 13.892 10.096 13.996 9.83602 14.1C7.08002 15.036 5.41602 16.492 5.41602 18C5.41602 19.508 7.18402 21.068 9.99202 22.056C10.2 22.16 10.46 22.212 10.72 22.264C10.616 22.576 10.564 22.888 10.512 23.2C9.99202 26.06 10.408 28.192 11.708 28.92C12.072 29.128 12.436 29.232 12.904 29.232C14.204 29.232 15.816 28.452 17.532 26.996C17.688 26.84 17.896 26.684 18.052 26.476C18.312 26.736 18.52 26.944 18.728 27.1C18.936 27.256 19.248 27.256 19.456 26.996C19.612 26.788 19.612 26.476 19.404 26.32C19.144 26.112 18.936 25.904 18.676 25.644C18.624 25.592 18.572 25.592 18.572 25.54C19.3 24.76 20.028 23.824 20.756 22.784C22.004 22.68 23.2 22.472 24.292 22.264V22.42C24.344 22.68 24.396 22.888 24.448 23.148C24.5 23.408 24.76 23.616 25.072 23.564C25.332 23.512 25.54 23.252 25.488 22.94C25.436 22.732 25.384 22.472 25.332 22.264C25.488 22.212 25.644 22.16 25.852 22.108C28.764 21.12 30.584 19.56 30.584 18.052C30.584 16.492 28.92 15.036 26.112 14.1ZM11.708 21.64C11.968 20.704 12.332 19.716 12.8 18.676L13.736 20.392C14.048 20.964 14.412 21.536 14.776 22.056C13.684 22.056 12.644 21.848 11.708 21.64V21.64ZM14.776 13.892C14.412 14.412 14.048 14.984 13.736 15.556L12.8 17.272C12.384 16.336 12.02 15.348 11.708 14.36C12.748 14.152 13.736 13.996 14.776 13.892ZM17.948 22.264C17.116 22.264 16.284 22.212 15.556 22.16C15.088 21.484 14.672 20.808 14.256 20.08C13.84 19.404 13.476 18.676 13.112 17.948C13.476 17.22 13.84 16.492 14.256 15.816C14.672 15.14 15.088 14.412 15.556 13.788C17.168 13.684 18.78 13.684 20.392 13.788C20.86 14.464 21.276 15.14 21.692 15.816C22.108 16.492 22.472 17.22 22.836 17.948C22.472 18.676 22.108 19.404 21.692 20.132C21.276 20.808 20.86 21.536 20.392 22.16C19.664 22.264 18.832 22.264 17.948 22.264V22.264ZM16.024 13.164C16.648 12.332 17.272 11.552 18 10.772C18.728 11.5 19.352 12.332 19.976 13.164C18.624 13.06 17.324 13.06 16.024 13.164V13.164ZM17.948 22.888C18.624 22.888 19.3 22.888 19.924 22.836C19.3 23.72 18.624 24.552 18 25.228C17.272 24.448 16.648 23.668 16.024 22.836C16.648 22.888 17.324 22.888 17.948 22.888ZM22.212 20.444C22.524 19.872 22.836 19.3 23.148 18.676C23.616 19.716 23.98 20.704 24.292 21.588C23.356 21.796 22.316 22.004 21.172 22.108C21.536 21.588 21.9 21.016 22.212 20.444ZM23.148 17.272L22.212 15.556C21.9 14.984 21.536 14.464 21.172 13.892C22.264 13.996 23.252 14.204 24.24 14.412C23.98 15.296 23.616 16.284 23.148 17.272ZM18.676 10.408C18.936 10.148 19.144 9.992 19.352 9.784C21.432 7.964 23.096 7.6 23.772 7.964C24.5 8.38 25.02 10.148 24.448 13.008L24.292 13.632V13.736C23.148 13.476 21.952 13.268 20.808 13.164C20.132 12.228 19.404 11.292 18.624 10.46L18.676 10.408V10.408ZM12.176 8.016C12.904 7.6 14.672 8.016 16.856 9.992C17.012 10.148 17.168 10.252 17.324 10.408L17.376 10.46C16.596 11.344 15.816 12.228 15.14 13.216C13.996 13.32 12.852 13.476 11.708 13.736V13.632C11.656 13.32 11.552 13.06 11.5 12.748C11.032 10.044 11.5 8.432 12.176 8.016V8.016ZM10.356 21.068C7.65202 20.132 6.45602 18.832 6.45602 18C6.45602 17.168 7.60002 15.972 10.148 15.088C10.46 14.984 10.772 14.88 11.136 14.776C11.188 14.776 11.188 14.776 11.24 14.724C11.604 15.816 12.02 16.908 12.488 18C11.968 19.144 11.5 20.288 11.188 21.328C11.136 21.328 11.136 21.328 11.084 21.276C10.824 21.224 10.616 21.172 10.356 21.068V21.068ZM16.856 26.164C14.724 28.036 12.956 28.4 12.228 27.984C11.5 27.568 11.032 26.008 11.552 23.356C11.604 23.044 11.708 22.732 11.76 22.42V22.264C12.8 22.472 13.996 22.68 15.244 22.784C15.92 23.772 16.7 24.708 17.48 25.54C17.428 25.54 17.428 25.592 17.376 25.592C17.22 25.8 17.012 26.008 16.856 26.164V26.164ZM25.488 21.068C25.332 21.12 25.124 21.172 24.968 21.224C24.916 21.224 24.864 21.276 24.812 21.276C24.5 20.236 24.032 19.144 23.512 17.948C24.032 16.804 24.448 15.764 24.76 14.724C24.812 14.724 24.864 14.776 24.916 14.776C25.228 14.88 25.54 14.932 25.8 15.036C28.4 15.92 29.596 17.168 29.596 17.948C29.544 18.832 28.296 20.132 25.488 21.068V21.068Z" fill="#2A7AE4"/>
</svg>
